function getColor(theta) {
  return round(abs(255 * cos(theta)));
}

function width(angle, radius) {
  seth2(radius * sin(angle), radius * cos(angle));
  return 2 * (1.5 + sin(45 + 2 * geth()));
}

function spiral(angle, twist) {
  // Twisted Rose Curves
  radius = 180 * sin(4 * angle);
  angle = angle + 20 * sin(twist * angle);
  setpw(width(angle, radius));
  setpc('rgb(' + getColor(30 + 3 * angle) + ',0,255)');
  setxy(radius * sin(angle), radius * cos(angle));
  pd();
}

clear('black');
pu();
//for (twist = 0; twist < 24; twist++) {
for (angle = 0; angle < 360; angle++) {
  spiral(angle, 23);
}
//}
